X:98
M:4/4
L:1/4
K:Eb
G A B c | F F G2 | B c d e | c c B2 | G A B c | A G F2 | !sintro!B A/G/ F E | F F E2 !eintro!|]
